ukui-icon-theme-default/scalable/mimetypes/application-pgp-keys.svg

<?xml version="1.0" encoding="utf-8"?>
<!-- Generator: Adobe Illustrator 24.0.0, SVG Export Plug-In . SVG Version: 6.00 Build 0)  -->
<svg version="1.1" id="图层_1" xmlns="http://www.w3.org/2000/svg" xmlns:xlink="http://www.w3.org/1999/xlink" x="0px" y="0px"
	 viewBox="0 0 96 96" enable-background="new 0 0 96 96" xml:space="preserve">
<title>96</title>
<g id="锁">
	<g id="_96">
		
			<linearGradient id="_48_1_" gradientUnits="userSpaceOnUse" x1="48" y1="64" x2="48" y2="-20" gradientTransform="matrix(1 0 0 1 0 26)">
			<stop  offset="0" style="stop-color:#3882D9"/>
			<stop  offset="1" style="stop-color:#4AA6E5"/>
		</linearGradient>
		<path id="_48" fill="url(#_48_1_)" d="M82,69V15c0-5-4-9-9-9H23c-5,0-9,4-9,9v66c0,5,4,9,9,9h38L82,69z"/>
		
			<linearGradient id="SVGID_1_" gradientUnits="userSpaceOnUse" x1="63.6598" y1="46.9703" x2="70.4798" y2="52.6503" gradientTransform="matrix(1 0 0 1 0 26)">
			<stop  offset="0" style="stop-color:#FFFFFF;stop-opacity:0.4"/>
			<stop  offset="1" style="stop-color:#FFFFFF;stop-opacity:0.2"/>
		</linearGradient>
		<path fill="url(#SVGID_1_)" d="M67,69h15L61,90V75C61,71.7,63.7,69,67,69z"/>
		<path fill="#FFFFFF" d="M61,33c0.6,0,1,0.4,1,1v18c0,0.6-0.4,1-1,1H35c-0.6,0-1-0.4-1-1V34c0-0.6,0.4-1,1-1H61 M61,30H35
			c-2.2,0-4,1.8-4,4v18c0,2.2,1.8,4,4,4h26c2.2,0,4-1.8,4-4V34C65,31.8,63.2,30,61,30z"/>
		<path fill="none" stroke="#FFFFFF" stroke-width="3" stroke-miterlimit="10" d="M38.5,32v-5.4c0.1-5.1,4.4-9.2,9.5-9.1l0,0
			c5.1-0.1,9.4,4,9.5,9.1V32"/>
		<rect x="45" y="39" fill="#FFFFFF" width="6" height="8"/>
		<g opacity="0.7">
			<line fill="none" stroke="#FFFFFF" stroke-width="2" stroke-miterlimit="10" x1="56" y1="60" x2="56" y2="73"/>
			<rect x="56" y="61" fill="none" stroke="#FFFFFF" stroke-width="2" stroke-miterlimit="10" width="6" height="6"/>
			<rect x="45" y="61" fill="none" stroke="#FFFFFF" stroke-width="2" stroke-miterlimit="10" width="6" height="6"/>
			<polyline fill="none" stroke="#FFFFFF" stroke-width="2" stroke-miterlimit="10" points="51,66.6 51,72 44,72 			"/>
			<line fill="none" stroke="#FFFFFF" stroke-width="2" stroke-miterlimit="10" x1="34" y1="60" x2="34" y2="73"/>
			<rect x="34" y="61" fill="none" stroke="#FFFFFF" stroke-width="2" stroke-miterlimit="10" width="6" height="6"/>
		</g>
	</g>
</g>
</svg>

<svg xmlns="http://www.w3.org/2000/svg" xmlns:xlink="http://www.w3.org/1999/xlink" viewBox="0 0 96 96"><defs><style>.cls-1{fill:url(#未命名的渐变_8);}.cls-2{fill:url(#未命名的渐变_184);}.cls-3{fill:#fff;}.cls-4,.cls-6{fill:none;stroke:#fff;stroke-miterlimit:10;}.cls-4{stroke-width:3px;}.cls-5{opacity:0.7;}.cls-6{stroke-width:2px;}</style><linearGradient id="未命名的渐变_8" x1="48" y1="32" x2="48" y2="116" gradientTransform="matrix(1, 0, 0, -1, 0, 122)" gradientUnits="userSpaceOnUse"><stop offset="0" stop-color="#3882d9"/><stop offset="1" stop-color="#4aa6e5"/></linearGradient><linearGradient id="未命名的渐变_184" x1="63.66" y1="49.03" x2="70.48" y2="43.35" gradientTransform="matrix(1, 0, 0, -1, 0, 122)" gradientUnits="userSpaceOnUse"><stop offset="0" stop-color="#fff" stop-opacity="0.4"/><stop offset="1" stop-color="#fff" stop-opacity="0.2"/></linearGradient></defs><title>96</title><g id="锁"><g id="_96" data-name="96"><path id="_48" data-name=" 48" class="cls-1" d="M82,69V15a9,9,0,0,0-9-9H23a9,9,0,0,0-9,9V81a9,9,0,0,0,9,9H61Z"/><path class="cls-2" d="M67,69H82L61,90V75A6,6,0,0,1,67,69Z"/><path class="cls-3" d="M61,33a1,1,0,0,1,1,1V52a1,1,0,0,1-1,1H35a1,1,0,0,1-1-1V34a1,1,0,0,1,1-1H61m0-3H35a4,4,0,0,0-4,4V52a4,4,0,0,0,4,4H61a4,4,0,0,0,4-4V34a4,4,0,0,0-4-4Z"/><path class="cls-4" d="M38.5,32V26.64A9.35,9.35,0,0,1,48,17.5h0a9.35,9.35,0,0,1,9.5,9.14V32"/><rect class="cls-3" x="45" y="39" width="6" height="8"/><g class="cls-5"><line class="cls-6" x1="56" y1="60" x2="56" y2="73"/><rect class="cls-6" x="56" y="61" width="6" height="6"/><rect class="cls-6" x="45" y="61" width="6" height="6"/><polyline class="cls-6" points="51 66.59 51 72 44 72"/><line class="cls-6" x1="34" y1="60" x2="34" y2="73"/><rect class="cls-6" x="34" y="61" width="6" height="6"/></g></g></g></svg>
